assets/img/braze_icons/credit-card-lock.svg

<svg fill="none" height="24" viewBox="0 0 24 24" width="24" xmlns="http://www.w3.org/2000/svg"><g fill="#801ed7"><path clip-rule="evenodd" d="m18.5 13c-1.5188 0-2.75 1.2312-2.75 2.75v.778c-.2025.024-.4296.0736-.658.19-.3763.1917-.6823.4977-.874.874-.1383.2714-.1824.5412-.201.7698-.0171.2081-.017.4539-.017.7063v.8638c0 .2524-.0001.4982.017.7063.0186.2286.0627.4984.201.7698.1917.3763.4977.6823.874.874.2714.1383.5412.1824.7698.2011.2081.017.4539.0169.7063.0169h3.8638c.2524 0 .4982.0001.7063-.0169.2286-.0187.4984-.0628.7698-.2011.3763-.1917.6823-.4977.874-.874.1383-.2714.1824-.5412.2011-.7698.017-.2081.0169-.4539.0169-.7063v-.8638c0-.2524.0001-.4982-.0169-.7063-.0187-.2286-.0628-.4984-.2011-.7698-.1917-.3763-.4977-.6823-.874-.874-.2284-.1164-.4555-.166-.658-.19v-.778c0-1.5188-1.2312-2.75-2.75-2.75zm.75 3.5v-.75c0-.4142-.3358-.75-.75-.75s-.75.3358-.75.75v.75z" fill-rule="evenodd"/><path d="m5.16146 2h13.67704c.5272-.00001.982-.00003 1.3565.03057.3954.03231.7886.10362 1.167.29642.5645.28762 1.0234.74656 1.311 1.31104.1928.37838.2641.7716.2964 1.16695.0306.37456.0306.82932.0306 1.35646 0 .46312-.3754.83856-.8386.83856h-20.32281c-.46314 0-.83859-.37545-.83859-.83859-.000015-.5271-.000028-.98189.03057-1.35643.0323-.39535.10362-.78857.29641-1.16695.28762-.56448.74657-1.02343 1.31105-1.31105.37838-.19279.7716-.26411 1.16695-.29641.37455-.0306.82938-.03059 1.35648-.03057z"/><path d="m2.6 9c-.56005 0-.84008 0-1.05399.10899-.18816.09588-.34114.24886-.43702.43702-.10899.21391-.10899.49389-.10899 1.05399v3.2385c-.000015.5271-.000028.982.03057 1.3565.0323.3954.10362.7886.29641 1.167.28762.5645.74657 1.0234 1.31105 1.311.37838.1928.7716.2641 1.16695.2964.37448.0306.82912.0306 1.35612.0306h6.1737c.2461 0 .3691 0 .4592-.0364.0902-.0364.1421-.075.203-.151.0607-.0758.1038-.2192.1898-.5059.0593-.1974.1396-.4075.2492-.6226.3132-.6148.7789-1.1357 1.3492-1.5149.2864-2.3494 2.2881-4.1692 4.7148-4.1692 1.5776 0 2.9756.7691 3.8395 1.9529.2842.3894.4262.5841.4845.5951.0568.0107.0979-.0027.1373-.0448.0406-.0433.0406-.2678.0405-.7169-.0002-.7288-.0018-1.4575-.0018-2.1863 0-.56 0-.84008-.109-1.05399-.0959-.18816-.2488-.34114-.437-.43702-.2139-.10899-.4939-.10899-1.054-.10899z"/></g></svg>

<svg width="24" height="24" viewBox="0 0 24 24" fill="none" xmlns="http://www.w3.org/2000/svg">
<path fill-rule="evenodd" clip-rule="evenodd" d="M18.5 13C16.9812 13 15.75 14.2312 15.75 15.75V16.528C15.5475 16.552 15.3204 16.6016 15.092 16.718C14.7157 16.9097 14.4097 17.2157 14.218 17.592C14.0797 17.8634 14.0356 18.1332 14.017 18.3618C13.9999 18.5699 14 18.8157 14 19.0681V19.9319C14 20.1843 13.9999 20.4301 14.017 20.6382C14.0356 20.8668 14.0797 21.1366 14.218 21.408C14.4097 21.7843 14.7157 22.0903 15.092 22.282C15.3634 22.4203 15.6332 22.4644 15.8618 22.4831C16.0699 22.5001 16.3157 22.5 16.5681 22.5H20.4319C20.6843 22.5 20.9301 22.5001 21.1382 22.4831C21.3668 22.4644 21.6366 22.4203 21.908 22.282C22.2843 22.0903 22.5903 21.7843 22.782 21.408C22.9203 21.1366 22.9644 20.8668 22.9831 20.6382C23.0001 20.4301 23 20.1843 23 19.9319V19.0681C23 18.8157 23.0001 18.5699 22.9831 18.3618C22.9644 18.1332 22.9203 17.8634 22.782 17.592C22.5903 17.2157 22.2843 16.9097 21.908 16.718C21.6796 16.6016 21.4525 16.552 21.25 16.528V15.75C21.25 14.2312 20.0188 13 18.5 13ZM19.25 16.5V15.75C19.25 15.3358 18.9142 15 18.5 15C18.0858 15 17.75 15.3358 17.75 15.75V16.5H19.25Z" fill="#801ED7"/>
<path d="M5.16146 2L18.8385 2C19.3657 1.99999 19.8205 1.99997 20.195 2.03057C20.5904 2.06288 20.9836 2.13419 21.362 2.32699C21.9265 2.61461 22.3854 3.07355 22.673 3.63803C22.8658 4.01641 22.9371 4.40963 22.9694 4.80498C23 5.17954 23 5.6343 23 6.16144C23 6.62456 22.6246 7 22.1614 7H1.83859C1.37545 7 1 6.62455 1 6.16141C0.999985 5.63431 0.999972 5.17952 1.03057 4.80498C1.06287 4.40963 1.13419 4.01641 1.32698 3.63803C1.6146 3.07355 2.07355 2.6146 2.63803 2.32698C3.01641 2.13419 3.40963 2.06287 3.80498 2.03057C4.17953 1.99997 4.63436 1.99998 5.16146 2Z" fill="#801ED7"/>
<path d="M2.6 9C2.03995 9 1.75992 9 1.54601 9.10899C1.35785 9.20487 1.20487 9.35785 1.10899 9.54601C1 9.75992 1 10.0399 1 10.6V13.8385C0.999985 14.3656 0.999972 14.8205 1.03057 15.195C1.06287 15.5904 1.13419 15.9836 1.32698 16.362C1.6146 16.9265 2.07355 17.3854 2.63803 17.673C3.01641 17.8658 3.40963 17.9371 3.80498 17.9694C4.17946 18 4.6341 18 5.1611 18L11.3348 18C11.5809 18 11.7039 18 11.794 17.9636C11.8842 17.9272 11.9361 17.8886 11.997 17.8126C12.0577 17.7368 12.1008 17.5934 12.1868 17.3067C12.2461 17.1093 12.3264 16.8992 12.436 16.6841C12.7492 16.0693 13.2149 15.5484 13.7852 15.1692C14.0716 12.8198 16.0733 11 18.5 11C20.0776 11 21.4756 11.7691 22.3395 12.9529C22.6237 13.3423 22.7657 13.537 22.824 13.548C22.8808 13.5587 22.9219 13.5453 22.9613 13.5032C23.0019 13.4599 23.0019 13.2354 23.0018 12.7863C23.0016 12.0575 23 11.3288 23 10.6C23 10.04 23 9.75992 22.891 9.54601C22.7951 9.35785 22.6422 9.20487 22.454 9.10899C22.2401 9 21.9601 9 21.4 9H2.6Z" fill="#801ED7"/>
</svg>
